X: 8
T: Black Rock
C: Becky Tracy
S: Handout at RJ practice 2018-2-13
R: reel
Z: 2018 John Chambers <jc:trillian.mit.edu>
M: C|
L: 1/8
K: Gmix
|:\
"G"D2D2 G3D | "F"FEFG FDC2 | "G"G3G F2D2 | "Dm"A3A- AGFE |\
"G"D2D2 G3D | "F"FEFG FDC2 | "G"G3G "Em"F2D2 |1 "G"G4 GFED :|2 G4 G4 ||
|:\
"Dm"A3A F2D2 | AGFE D2[D2A,2] | A3A F2D2 | "F"c3c- cBAG |\
"Dm"A3A F2D2 | GFED D2D2 | "G"G3G "F"F2D2 |1 "Gm"G4 _B4 :|2 "G"HG2z2 GFED |]

%%sep 1 1 500

